X:250
T:The Wise Maid
T:All Around the World
M:4/4
L:1/8
R:Reel
K:D
|:F2FG FEDE|FAAB AFED|d2 eg fdec|dBAF BEE2|
|F2FG FEDE|FAAB AFED|d2 eg fdec|1dBAG FDDE:|2dBAG FDFA|
|:d2AG FDFA|dfaf gfeg|fAdf eAce|dfed cAA2|
|BDGB ADFA|dfaf gfed|Bd ce dBAG|1FGEF D3c:|2FGEF D3E|]
